Adwaita++-Dark/actions/22/format-line-spacing-double.svg

<svg height="22" viewBox="0 0 22 22" width="22" xmlns="http://www.w3.org/2000/svg">
  <path d="m5 3v1h-3v8h3v1h9v-3h-9v1h-2v-2h1v-2h-1v-2h2v1h9v-3z" fill="#e6ddff" transform="translate(3 3)"/>
</svg>

<svg xmlns="http://www.w3.org/2000/svg" width="22" height="22" viewBox="0 0 22 22">
 <defs>
  <style id="current-color-scheme" type="text/css">
   .ColorScheme-Text { color:#E6DDFF; } .ColorScheme-Highlight { color:#4285f4; }
  </style>
 </defs>
 <path style="fill:currentColor" class="ColorScheme-Text" d="M 5 3 L 5 4 L 2 4 L 2 12 L 5 12 L 5 13 L 14 13 L 14 10 L 5 10 L 5 11 L 3 11 L 3 9 L 4 9 L 4 7 L 3 7 L 3 5 L 5 5 L 5 6 L 14 6 L 14 3 L 5 3 z" transform="translate(3 3)"/>
</svg>
